X: 1
T:Glory Reel
M:4/4
L:1/8
S:Altan
D:Island Angel
Z:Transcribed by Bill Reeder
K:G
|: G2 BG dGBG| G2 BG AFDF| G2 BG dGBG| c2 Bc AFDF :|
|: E6 cA| BGEB AFDF| E2~E2 E2cA|1 BdcB AFDF :|2 BdcB A2 ef|
|: gagf e2 ef| g2 fg ecAf| gagf eaaf|1 g2 fg ecAf:|2 g2 fg ecAF||
